X:01
T: Wallace and Gromit
M: C|
L: 1/8
C: Julian Nott
S:<ally@situponseats.co.uk> tradtunes 2010-12-3
K: G
|: d2cB d2cB | d A7 | edef- fedc | B8 |\
   d2cB d2cB | d A7 | edef- fe2f |1 g8 :|2 g2d2 ggfe ||
g2fe- egfe  | g2ed- dd^cd | eded  B/AB/-B/A/B | B4-   BB^AB |\
B2AF- FF^EF | A2GE- EE^DE | GEGB- BG2B  | d8 ||
d2cB  d2cB  | d A7        | edef- fedc  | B8 |\
d2cB  d2cB  | d A7        | edef- fe2f  | g8 |]
